!!!OTL: Abendlied
!!!ARE: Europa, Mitteleuropa, Deutschland
!!!SCT: A0254C
!!!YEM: Copyright 1995, estate of Helmut Schaffrath.
**kern
*ICvox
*Ivox
!! Mixed meters:  4/2; 6/2
*M4/2
*k[b-]
*F:
{2a
=1
2f
2g
2a
2cc
=2
1b-
2a}
{2a
=3
2cc
2cc
2g
2a
=4
1f
2e}
{2e
=5
2f
2g
2a
2a
=6
1g
2r}
{2a
=7
2f
2g
2a
2cc
=8
1b-
2a}
{2a
=9
2cc
2cc
2g
2a
=10
1f
2e}
{2c
=11
2f
2g
2a
2b-
=12
2a
2g
2f}
==
!!!AGN: Romanze, Ballade, Lied
!! 1653
!!!ONB: ESAC (Essen Associative Code) Database: ALTDEU
!!!AMT: irregular
!!!AIN: vox
!!!EED: Helmut Schaffrath
!!!EEV: 1.0
*-
